X: 1498
T: Nihâvent Taksim
C: Tanburî Cemil Bey
O: Turkey
F: http://compmusic.upf.edu/node/140
N: nihavent--taksim--serbest----tanburi_cemil_bey
N: makam= nihavent
N: form= taksim
N: usul= serbest = 0/1
M: 0/1
L: 1/16
K: C _B _e  
Q: 1/4=72
%%MIDI tuningsystem comma53
G6 g2 g4 ^f e3  | d2 ^c d e ^f g a f e d c d2 c d  | \
w:   |   | 
e ^f d f e d ^c e d4 d3/2 c/ d2  | 
w:   | 
d4 z4 G G ^F G G4  | d2 d3/2 ^f/ e d d2 d ^c d2 d2 D8 z4 z4 d2  | 
w:   |   | 
d ^c d e ^f d2 e d c e d3/4 e1/4 d/ c/ d2 z4 =c A A c2 c4 c4  | 
w:   | 
c4 c4 c/ c/ B/ A/ B/ c/ c/ B/ A/ B/ c/ c/ B/ A/ B/ B d2 d c2 c B2 B A2 A G2 G A G ^F G4 G4 G,4 z4 z4 C D2 D4 D4 D4 z4 d2 e d ^c d2 D4 d2 e d c d2 D2 z2 d2 e d c d2 z2 e2 d2 c2 d2 e ^f g a f e d c d e f g a b g a b c' a b a g f g e d2 c d4 z2 e f g z f2 z4 z4 g f e d z2 d2 a4 g f a f e g e d d4 z4 z4 z4 G, B, D2 D2 D2 D2 D2 d2 d2 d2 d2 d2 =c4 c d2 c B A B c B2 c d2 c d e2 d =f g g f e d d c c d d c B B A B z4 z4 z4 B =F B2 d2 c B2 z4 B F B d2 c B2 B F B e2 d c2 c D c f2 e d2 d B d g2 g f _a g f e d d c d d c B A B A B A B A d2 z2 d c c B2 B A2 A2 G ^F G A G B A4 A4 z4 C D2 D D4 D4 D4 D4 D4 D4 |
w:   | 


